X: 1
T: Hawk, The
M: 6/8
L: 1/8
R: jig
K: Fmaj
|:B,EG A,DF|B=A_A G2g|fed c=AF|=ABc B=A_A|
~G3 ~F3|EFE DEF|B=A_A GB,D|FED E2B,:|
|:EGB gfe|dfB AFD|EGB bdf|=acg f=e_e|
~d3~c3|~B3 FDB,|B=A_A GB,D|FED E2B,:|
